X: 1242
T: The Right Hon.ble Lord Ballenden's Strathspey
%R: strathspey
B: Niel Gow & Sons "A Collection of Strathspey Reels, etc." v.1 p.24 #2
Z: 2022 John Chambers <jc:trillian.mit.edu>
M: C
L: 1/8
K: E
% - - - - - - - - - -
V: 1 staves=2
e |\
B2B>G TGFF<e | B2B>G Beg>f | e<c BG TGFF>G | E<B,TB,>C E2E :: a  g<e-e>g a>gf<b |
g<e-e>b gebg | a>fg>e Tf>ec<f | e>cBG B2B :: e | E>BG>B TF>ECF | E>BG>B E>ege | f>de>G TF>ECf |
e>cBG B2B :: g | e>bg>b a/g/f/e/ cf | e>bg>b e>gbg | Tab/a/ ga/g/ a/g/f/e/ c>f | e>cBG B2B :|
% - - - - - - - - - -
% Voice 2 preserves the staff layout in the book.
V: 2 clef=bass middle=d
z |\
e2e2 f2f2 | e2e2 e2e2 | a2g2 f2f2 | e2B2 E2E :: z | e2e2 f2f2 |
e2e2 e2e2 | a2g2 f2f2 | e2B2 E2E :: z | e2e2 f2f2 | e2e2 e2e2 | e2e2 f2f2 |
e2B2 E2E :: z | e2e2 f2f2 | e2e2 e2e2 | a2g2 f2f2 | e2B2 E2E :|


